X:494
T:Lord Lovat's Welcome
R:Slow Strathspey
B:The Athole Collection
M:C
L:1/8
Q:1/4=140
K:F
c|:A<F ~F>A G>F ~F<D|C<F ~F>A c>A ~f2|A<F ~F>A G>F G<A|
d>c A<c d<e ~f2:|
c>d f<a g<a ~f>d|~c>d f>g a/g/f/e/ ~f2|~c>d f<a g<a ~f>e|d>c A<c de ~f2|
~c>d f<a g<a ~f>d|~c>df>g a/g/f/e/ ~f2|c<aa<g g<ff<e|d<c c>B A<cf<a||

